X:1
T:The Green Fields Of Rossbeigh
L:1/8
M:4/4
I:linebreak $
K:D
V:1 treble 
V:1
|: BE E2 BAFB | ABde fded | BE E2 BAFA | BFAF EFGA | B2 Bd BAFB |$ ABde fded | BE E2 BAFA | %7
 BFAF E2 FA :: B/c/d ef g2 fe | dB B2 dBAd |$ B/c/d ef g2 fe | dBAF E2 ef | g2 ga gfed | %13
 f2 fg fedB | ABde fgfe | dBAF E4 :| %16
